X:1
T:Title
%%score { ( 1 2 ) | ( 3 4 ) }
L:1/8
M:3/4
K:E
V:1 treble nm="Grand Piano"
V:2 treble 
V:3 bass 
V:4 bass 
V:1
 z2 z2[Q:1/4=100] z F | G>G G2 B2 | [DB]2 [DA]2 [DF][EG] | [FA]>[FA] [FA]2 [DB]2 |[M:2/4] G4 | %5
[M:1/4] GA |[M:3/4] [EGB]>[EGB] [EGB]2 [EBe]2 | [EBd]2 [EAc]2 .[A,CA]2 | %8
 [G,B,E]>[B,EG] [B,EG]2 [A,DF]2 |[M:2/4] [G,E]4 |[M:1/4] B2 |[M:3/4] d3 d cd | [Ge]2 [GB]2 [EB]2 | %13
 [DB]3 [FA] [Ac][GB] |[M:2/4] G4 |[M:1/4] GA |[M:3/4] [EGB]>[EGB] [EGB]2 [EBe]2 | %17
 [EBd]2 [EAc]2 .[A,CA]2 | [G,B,E]>[B,EG] [B,EG]2 [A,DF]2 |[M:6/4] .[G,E]6 z6 |] %20
V:2
 z2 z2 E2 | x6 | x6 | x6 |[M:2/4] x4 |[M:1/4] x2 |[M:3/4] x6 | x6 | x6 |[M:2/4] x4 |[M:1/4] x2 | %11
[M:3/4] x6 | x6 | x6 |[M:2/4] x4 |[M:1/4] x2 |[M:3/4] x6 | x6 | x6 |[M:6/4] x12 |] %20
V:3
 z2 z2 G,A, | [E,B,E]>[E,B,E] [E,B,E]2 [E,G,E]2 | [B,,F,]2 [B,,F,]2 [B,,B,]2 | %3
 [D,B,]>[D,B,] [D,B,]2 [B,,B,]2 |[M:2/4] [E,B,E]4 |[M:1/4] EF |[M:3/4] E,>E, E,2 G,2 | %7
 A,2 A,2 z F | B,,>B,, B,,2 B,,2 |[M:2/4] E,4 |[M:1/4] B,2 | %11
[M:3/4][K:treble] [B,A]3 [B,A] [B,A][B,A] | [E,B,]2 [E,E]2 [E,G,]2 | %13
 [B,,F,]3 [B,,B,] [B,,B,][B,,B,] |[M:2/4] [E,B,E]4 |[M:1/4] EF |[M:3/4] E,>E, E,2 G,2 | %17
 A,2 A,2 z F | B,,>B,, B,,2 B,,2 |[M:6/4] .E,6 z6 |] %20
V:4
 z2 z2 E,2 | x6 | x6 | x6 |[M:2/4] x4 |[M:1/4] [E,B,]2 |[M:3/4] x6 | z2 z2 A,,2 | x6 |[M:2/4] x4 | %10
[M:1/4] x2 |[M:3/4][K:treble] x6 | x6 | x6 |[M:2/4] x4 |[M:1/4] [E,B,]2 |[M:3/4] x6 | z2 z2 A,,2 | %18
 x6 |[M:6/4] x12 |] %20

